X:0591
M:6/8
L:1/8
Q:3/8=120
K:A
c|A2c A2c|(e2d) B3|c2c BAB|A3 A2:|
c|A2c A2c|(e2d) B3|c2c BAB|A3 A2|]

